X: 478
T:The stone in the field
M:4/4
L:1/8
Q:180
S:Tommy Reck
R:Reel
Z:Andrew Pickering
N:Posted to the woodenflute mailing list January 2002
K:ADor
AG|EAAG ABcd|eaaf gedB|cBAc BG {A}(3GFG|AcBA GEDF|
EAAG ABcd|eaaf gedB|cBcd efed|cABG A2:|
cd|eaag agab|c'2 ba gedB|cBAc BG {A}(3GFG|AcBA GED2|
ea {b}(3aga bg {a}(3gfg|agef gfga|bgaf gedB|AcBG A2:|

